X: 399
T:N'esse pas ung grant deplaisir
N: Derived from Jos2917-Nesse_pas_ung_grant_deplaisir.krn
C: Josquin des Prez
%%abc-version 2.0
%%abcx-abcm2ps-target-version 5.9.1 (29 Sep 2008)
%%abc-creator hum2abc beta
%%abcx-conversion-date 2019/02/12 16:15:55
%%abc-edited-by Jesse Rodin
%%abc-edited-by Will Watson 09/12/2011
%%abcx-initial-encoding-date 2011/12/09/
%%humdrum-veritas 2467654605
%%humdrum-veritas-data 1570476168
%%linebreak <none>
%%barnumbers 0
L: 1/4
M: 2/1
Q: 1/2=120
V: 1 clef=treble
V: 2 clef=treble-8
V: 3 clef=treble-8
V: 4 clef=bass
V: 5 clef=bass
K: C
[V:1] A4A2A2 | 
[V:2] z8 | 
[V:3] z8 | 
[V:4] z8 | 
[V:5] z4A,4 | 
[V:1] c4B2A2- | 
[V:2] z8 | 
[V:3] z8 | 
[V:4] z8 | 
[V:5] A,2A,2G,2F,2 | 
[V:1] AGFEF2F2 | 
[V:2] A4A2A2 | 
[V:3] z8 | 
[V:4] z4A,4 | 
[V:5] D,4D,4 | 
[V:1] E2C2D2F2- | 
[V:2] c4B2A2- | 
[V:3] z8 | 
[V:4] A,2A,2G,2F,2 | 
[V:5] A,,4z4 | 
[V:1] FEDCDEFD | 
[V:2] AGFEF2F2 | 
[V:3] A4A2A2 | 
[V:4] D,4D,4 | 
[V:5] z4z2A,2 | 
[V:1] E2C2D2F2- | 
[V:2] E4z4 | 
[V:3] c4B2A2- | 
[V:4] A,,2A,2B,2C2 | 
[V:5] A,2A,2G,2F,2 | 
[V:1] FEDCDEFD | 
[V:2] z8 | 
[V:3] AGFEF2F2 | 
[V:4] D2D2A,3B, | 
[V:5] D,4D,4 | 
[V:1] E4z2c2 | 
[V:2] z2e2e2e2 | 
[V:3] E4z4 | 
[V:4] C4z2A,2 | 
[V:5] A,,8 | 
[V:1] c2B2c2B2- | 
[V:2] e6d2 | 
[V:3] z8 | 
[V:4] A,2G,2A,2G,2 | 
[V:5] z8 | 
[V:1] BAA4^G2 | 
[V:2] c2A2B4 | 
[V:3] z2e2e2e2 | 
[V:4] C3DE2B,2 | 
[V:5] z2A,,2E,2E,2 | 
[V:1] A2EFGAB2- | 
[V:2] A4z4 | 
[V:3] e6d2 | 
[V:4] C2C2C2B,2 | 
[V:5] A,,B,,C,D,E,F,G,2 | 
[V:1] BAA4^G2 | 
[V:2] z8 | 
[V:3] c2A2B4 | 
[V:4] C3DE4 | 
[V:5] A,2F,2E,4 | 
[V:1] A2A2A2A2 | 
[V:2] z8 | 
[V:3] A4z4 | 
[V:4] C8 | 
[V:5] A,,4z2A,2 | 
[V:1] c4B2A2- | 
[V:2] z8 | 
[V:3] z8 | 
[V:4] z8 | 
[V:5] A,2A,2G,2F,2 | 
[V:1] AGFEF2F2 | 
[V:2] z2A2A2A2 | 
[V:3] z8 | 
[V:4] z4z2A,2 | 
[V:5] D,4D,4 | 
[V:1] E2C2D2F2- | 
[V:2] c4B2A2- | 
[V:3] z8 | 
[V:4] A,2A,2G,2F,2 | 
[V:5] A,,4z4 | 
[V:1] FEDCDEFD | 
[V:2] AGFEF2F2 | 
[V:3] z2A2A2A2 | 
[V:4] D,4D,4 | 
[V:5] z4z2A,2 | 
[V:1] E2C2D2F2- | 
[V:2] E4z4 | 
[V:3] c4B2A2- | 
[V:4] A,,2A,2B,2C2 | 
[V:5] A,2A,2G,2F,2 | 
[V:1] FEDCDEFD | 
[V:2] z8 | 
[V:3] AGFEF2F2 | 
[V:4] D2D2A,3B, | 
[V:5] D,4D,4 | 
[V:1] E4z2c2 | 
[V:2] z2e2e2e2 | 
[V:3] E4z4 | 
[V:4] C4z2A,2 | 
[V:5] A,,8 | 
[V:1] c2B2c2B2- | 
[V:2] e6d2 | 
[V:3] z8 | 
[V:4] A,2G,2A,2G,2 | 
[V:5] z8 | 
[V:1] BAA4^G2 | 
[V:2] c2A2B4 | 
[V:3] z2e2e2e2 | 
[V:4] C3DE2B,2 | 
[V:5] z2A,,2E,2E,2 | 
[V:1] A2EFGAB2- | 
[V:2] A4z4 | 
[V:3] e6d2 | 
[V:4] C2C2C2B,2 | 
[V:5] A,,B,,C,D,E,F,G,2 | 
[V:1] BAA4^G2 | 
[V:2] z8 | 
[V:3] c2A2B4 | 
[V:4] C2D2E4 | 
[V:5] A,2F,2E,4 | 
[V:1] A4z2A2 | 
[V:2] z2c2c2c2 | 
[V:3] A4z4 | 
[V:4] z2E,2F,2E,2 | 
[V:5] A,,8 | 
[V:1] A2G2A2G2- | 
[V:2] c6B2 | 
[V:3] z8 | 
[V:4] F,2E,2F,2G,2 | 
[V:5] z8 | 
[V:1] GFF4E2 | 
[V:2] A2F2G4 | 
[V:3] z2c2c2c2 | 
[V:4] A,3B,C2G,2 | 
[V:5] z2F,,2C,2C,2 | 
[V:1] F2CDEFG2- | 
[V:2] F4z4 | 
[V:3] c6B2 | 
[V:4] A,2A,2A,2G,2 | 
[V:5] F,,G,,A,,B,,C,D,E,2 | 
[V:1] GFF4E2 | 
[V:2] z8 | 
[V:3] A2F2G4 | 
[V:4] A,2B,2C4 | 
[V:5] F,2D,2C,4 | 
[V:1] F4z4 | 
[V:2] z2A2A2A2 | 
[V:3] F4z4 | 
[V:4] A,2D,2F,2D,2 | 
[V:5] F,,2F,2D,2F,2 | 
[V:1] z8 | 
[V:2] A6G2 | 
[V:3] z8 | 
[V:4] F,G,A,B,CDE2- | 
[V:5] D,2F,4C,2 | 
[V:1] z4z2E2 | 
[V:2] F2D2E4 | 
[V:3] z2A2A2A2 | 
[V:4] EDD4^C2 | 
[V:5] D,4A,,4 | 
[V:1] F2F2F2E2- | 
[V:2] D4z4 | 
[V:3] A6G2 | 
[V:4] (3:2:6D3A,D2C3B,C2 | 
[V:5] D,2F,2F,2C,2 | 
[V:1] EDD4^C2 | 
[V:2] z8 | 
[V:3] F2D2E4 | 
[V:4] (3:2:6A,3F,G,2A,3G,E,2 | 
[V:5] D,2B,,2A,,4 | 
[V:1] D4z2A2 | 
[V:2] z2d2d2d2 | 
[V:3] D4z4 | 
[V:4] F,4z4 | 
[V:5] D,8 | 
[V:1] A2A2c3c | 
[V:2] f6e2 | 
[V:3] z8 | 
[V:4] D,2F,2F,2C,2 | 
[V:5] z8 | 
[V:1] B2A2G2G2 | 
[V:2] d3cB4 | 
[V:3] z2d2d2d2 | 
[V:4] G,2D,2G,4 | 
[V:5] z8 | 
[V:1] A2A2c4 | 
[V:2] A8 | 
[V:3] f6e2 | 
[V:4] F,3G,A,B,C2 | 
[V:5] D,2F,2F,2C,2 | 
[V:1] B2A3^GG^F | 
[V:2] z8 | 
[V:3] d3cB4 | 
[V:4] D2F2E4 | 
[V:5] G,2D,2E,4 | 
[V:1] A4z2A2 | 
[V:2] z4z2e2 | 
[V:3] A8- | 
[V:4] C4z2C2 | 
[V:5] A,,4z2A,,2 | 
[V:1] A2c2A2c2 | 
[V:2] f2e2f2e2 | 
[V:3] A8- | 
[V:4] D2C2D2C2 | 
[V:5] D,2A,,2D,2A,,2 | 
[V:1] A4A3B | 
[V:2] f4f4 | 
[V:3] A8- | 
[V:4] D4D4 | 
[V:5] D,4D,4 | 
[V:1] c8 |]  
[V:2] e8 |]  
[V:3] A8 |]  
[V:4] C8 |]  
[V:5] A,,8 |]  



